X: 28735
T: My Friend Buddy
R: jig
M: 6/8
K: Fmajor
|:[Acf]|F>GF FGA|cdc cAF|F>GF FAc|fgf fga|
F>GF FGA|B/c/dc c2 F|G>AG GAc|d3 d2:|
|:f|a>gf fcA|FGF FAc|a>gf fcf|gag gfg|
[1 a>gf fcA|FGF FAc|G>AG GAc|d3 d2:|
[2 af/g/a geg|ff/e/d cAF|G>AG GAc|d3- d2||

